X:0270
M:2/4
L:1/8
Q:1/4=128
K:G
  G>AGB|dB (de/f/)|gedB |  G3                ||
  A>GAd|B^cdg     |fdef |  d2 (e d//c//B//A//)|
  G>AGB|dBdB      |A>BAc|  e2  e3/f//g//      |\
  G>AGB|dBd>Hg    |A>GAd|  G3                :|

